X: 20388
T: John Doherty's
R: strathspey
M: 4/4
K: Dmajor
d>c d>e d<A A>f|g>f e>d c>e a2|d>c d>e d<A A>d|(3Bcd (3efg f<d d2:|
f<d f>a g>f e>d|c>B c>e A2 a>g|f<d f>a g>f e>d|c>e a>g f<d d2|
f<d f>a g>f e>d|c>B c>e a2 a>g|(3fga (3gfe (3dcB (3AFA|(3Bcd (3efg (3faf (3gec|

